X:29
T:Codger's in the Cannongate THO1.029
T:Cadger's in the Cannongate,aka THO1.029
M:C|
L:1/8
Z:vmp. Peter Dunk 2012.from a transcription by Fynn Titford-Mock 2006
B:Thompson's Compleat Collection of 200 Favourite Country Dances Vol.I,1758
Q:1/2=70
K:G
GBGB de/f/ ge|dBgB A/A/A A2|GBGB de/f/ ge|dBgB G/G/G G2:|
|:bagf gedc|GBgB A/A/A A2|b/a/f a/g/e g/f/d e/d/B|dBgB G/G/G G2:|

